common/src/main/resources/icons/plugins/resharper/Connect/Connection.svg

<svg xmlns="http://www.w3.org/2000/svg" width="16" height="16" data-big="true" viewBox="0 0 24 24"><path fill="#A1887F" d="M6 20a6 6 0 0 1-6-6c0-3.09 2.34-5.64 5.35-5.96A7.5 7.5 0 0 1 12 4a7.5 7.5 0 0 1 7.35 6A5.02 5.02 0 0 1 24 15a5 5 0 0 1-5 5zM9.09 8.4 4.5 13l4.59 4.6 1.41-1.42L7.32 13l3.18-3.18zm5.82 0L13.5 9.82 16.68 13l-3.18 3.18 1.41 1.42L19.5 13z"/></svg>

<!--
  - The MIT License (MIT)
  -
  - Copyright (c) 2015-2024 Elior "Mallowigi" Boukhobza
  -
  - Permission is hereby granted, free of charge, to any person obtaining a copy
  - of this software and associated documentation files (the "Software"), to deal
  - in the Software without restriction, including without limitation the rights
  - to use, copy, modify, merge, publish, distribute, sublicense, and/or sell
  - copies of the Software, and to permit persons to whom the Software is
  - furnished to do so, subject to the following conditions:
  -
  - The above copyright notice and this permission notice shall be included in all
  - copies or substantial portions of the Software.
  -
  - THE SOFTWARE IS PROVIDED "AS IS", WITHOUT WARRANTY OF ANY KIND, EXPRESS OR
  - IMPLIED, INCLUDING BUT NOT LIMITED TO THE WARRANTIES OF MERCHANTABILITY,
  - FITNESS FOR A PARTICULAR PURPOSE AND NONINFRINGEMENT. IN NO EVENT SHALL THE
  - AUTHORS OR COPYRIGHT HOLDERS BE LIABLE FOR ANY CLAIM, DAMAGES OR OTHER
  - LIABILITY, WHETHER IN AN ACTION OF CONTRACT, TORT OR OTHERWISE, ARISING FROM,
  - OUT OF OR IN CONNECTION WITH THE SOFTWARE OR THE USE OR OTHER DEALINGS IN THE
  - SOFTWARE.
  -->


<svg data-big="true" xmlns="http://www.w3.org/2000/svg" version="1.1" width="16px" height="16px" viewBox="0 0 24 24">
  <path fill="#A1887F"
        d="M6,20A6,6 0 0,1 0,14C0,10.91 2.34,8.36 5.35,8.04C6.6,5.64 9.11,4 12,4C15.63,4 18.66,6.58 19.35,10C21.95,10.19 24,12.36 24,15A5,5 0 0,1 19,20H6M9.09,8.4L4.5,13L9.09,17.6L10.5,16.18L7.32,13L10.5,9.82L9.09,8.4M14.91,8.4L13.5,9.82L16.68,13L13.5,16.18L14.91,17.6L19.5,13L14.91,8.4Z"/>
</svg>
